src/symbolic/devices/drive-multidisk-symbolic.svg

<svg xmlns="http://www.w3.org/2000/svg" width="16" height="16"><path d="M13 6h1v3h-1zM2 6h1v3H2zM13 13h1v2h-1zM2 13h1v2H2z" fill="#444"/><path d="M1 1c-.554 0-1 .446-1 1v4c0 .554.446 1 1 1h14c.554 0 1-.446 1-1V2c0-.554-.446-1-1-1H1zm12 2a1 1 0 0 1 1 1 1 1 0 0 1-1 1 1 1 0 0 1-1-1 1 1 0 0 1 1-1zM1 8c-.554 0-1 .446-1 1v4c0 .554.446 1 1 1h14c.554 0 1-.446 1-1V9c0-.554-.446-1-1-1zm12 2a1 1 0 0 1 1 1 1 1 0 0 1-1 1 1 1 0 0 1-1-1 1 1 0 0 1 1-1z" fill="#444"/></svg>

<svg xmlns="http://www.w3.org/2000/svg" width="16" height="16" version="1.1">
 <path style="fill:#444444" d="M 13,6 H 14 V 9 H 13 Z"/>
 <path style="fill:#444444" d="M 2,6 H 3 V 9 H 2 Z"/>
 <path style="fill:#444444" d="M 13,13 H 14 V 15 H 13 Z"/>
 <path style="fill:#444444" d="M 2,13 H 3 V 15 H 2 Z"/>
 <path style="fill:#444444" d="M 1 1 C 0.446 1 0 1.446 0 2 L 0 6 C 0 6.554 0.446 7 1 7 L 15 7 C 15.554 7 16 6.554 16 6 L 16 2 C 16 1.446 15.554 1 15 1 L 1 1 z M 13 3 A 1 1 0 0 1 14 4 A 1 1 0 0 1 13 5 A 1 1 0 0 1 12 4 A 1 1 0 0 1 13 3 z"/>
 <path style="fill:#444444" d="M 1,8 C 0.446,8 0,8.446 0,9 V 13 C 0,13.554 0.446,14 1,14 H 15 C 15.554,14 16,13.554 16,13 V 9 C 16,8.446 15.554,8 15,8 Z M 13,10 A 1,1 0 0 1 14,11 1,1 0 0 1 13,12 1,1 0 0 1 12,11 1,1 0 0 1 13,10 Z"/>
</svg>
